X:8
T:Hora lui Florian
R:hora
S:Trio Polifonic on Youtube
H:Played in F on the recording, but transposed here.
Z:id:hn-hora-8
M:C|
L:1/8
K:G
^FGBd fg=fd | e=fd2 zcde | =f2ec dBcA | Bcd^f gdBG |
^FGBd fg=fd | e=fd2 zcde | =f2ec dBcA | B7g |
^fg_b2 fg=fd | e=fd2 zcde | =f2ec dBcA | Bcd^f gdBG |
^FGBd fg=fd | e=fd2 zcde | =f2ec dBcA | B4 zcde ||
|: =f2ec dBcA | B^FGA Bcde | =f2ec dBcA | Bcd^f gdBG |
=f2ec dBcA | B^FGA Bcde | =f2ec dBcA |1 B4 zcde :|2 B4 z^FG^G ||
A^GA=G FDFA | dfag fffd | e^deA ggge | fde^c d^FG^G |
A^GA=G FDFA | dfag fffd | e^deA ggge | fde^c d^FG^G |
ABAG F2a^g | abag fffd | e^deA ggge | fde^c d^FG^G |
A^GA=G FDFA | dfag fffd | e^deA ggge | fde^c d=cBA ||

